X: 1196
T: A Rainy Day
M:C|
L:1/8
R:Reel
B:O'Neill's 1196
N:Collected by McFadden
Z:Transcribed by Trish O'Neil
K:A
EAAGA2(Ac)|BcdB cBAc|BGGAG2(GA)|(3Bcd (ef) gdBG|
EAAB AGAB|cBAB cdef|gbaf gedB|GBdB cAA2||
e(a{b}a)g  agag|e^def gabg|e(g{a}g)fg2(ga)|bgaf gedf|
e(a{b}a)g e(a{b}a)g|e^def gaba|(3gfe (dB) GBaf|gedB cAA2||


